X:184
T:Terence Patrick III
C:Terence "Cuz" Teahan
B:Terry "Cuz" Teahan "Sliabh Luachra on Parade" 1980
Z:Patrick Cavanagh
M:4/4
L:1/8
R:Reel
K:D
FA | Beg/e/d BedB | AFdF AFDF | Beed BedB | AFdF D2FA | 
Beg/e/d BedB | AFdF AFDF | Beed BedB | AFdF E2 :| 
z2 | e2eg edBd | dBgB AFED | Beef gedB | BdAF D2FA | 
e2eg edBd | dBgB AFED | Beef gedB | BdAF E2 :|| 

